X: 11609
T: Eggs
R: reel
M: 4/4
K: Emajor
e3f eBB/B/B|efgb b/b/bgb|abgf e3c|Bceg fegf|
e3f eBB/B/B|efgb b/b/bgb|c'2bg agfe|1 Bcef fegf:|2 Bcef fege||
f3g fecB|e/e/ege bege|f3g fecB|efgb b/b/bgb|
c'4 b2gb|c'2bg agfe|f3f fecB|1 Bcef fege:|2 Bcef fegf||

